packages/kaspersky-hexa-ui-icons/src/iconsSVGs/28x20/FlagDm.svg

<svg width="28" height="20" viewBox="0 0 28 20" fill="none" xmlns="http://www.w3.org/2000/svg">
<g clip-path="url(#clip0_5138_675)">
<rect width="28" height="20" rx="2" fill="white"/>
<mask id="mask0_5138_675" style="mask-type:luminance" maskUnits="userSpaceOnUse" x="0" y="0" width="28" height="20">
<rect width="28" height="20" rx="2" fill="white"/>
</mask>
<g mask="url(#mask0_5138_675)">
<path fill-rule="evenodd" clip-rule="evenodd" d="M0 8H28V0H0V8Z" fill="#108753"/>
<path fill-rule="evenodd" clip-rule="evenodd" d="M0 20H28V12H0V20Z" fill="#108753"/>
<path fill-rule="evenodd" clip-rule="evenodd" d="M16 20H12V12H0V8H12V0H16V8H28V12H16V20Z" fill="white"/>
<path fill-rule="evenodd" clip-rule="evenodd" d="M14.6667 20H13.3333V10.6667H0V9.33333H13.3333V0H14.6667V9.33333H28V10.6667H14.6667V20Z" fill="#262626"/>
<path fill-rule="evenodd" clip-rule="evenodd" d="M13.3333 20H12V9.33333H0V8H12V0H13.3333V8H28V9.33333H13.3333V20Z" fill="#FCD449"/>
<circle cx="14" cy="10" r="4.66667" fill="url(#paint0_linear_5138_675)"/>
<path d="M14.2106 12.6588C14.5774 12.6306 14.8977 12.9044 14.9264 13.2711C14.9549 13.6382 14.6802 13.9594 14.3131 13.9879C14.2097 13.996 14.1049 13.9997 13.9997 13.9997C13.8944 13.9997 13.7896 13.996 13.6862 13.9879C13.3193 13.9592 13.0454 13.6381 13.0739 13.2711C13.1026 12.9043 13.4228 12.6304 13.7897 12.6588C13.8588 12.6642 13.9289 12.6666 13.9997 12.6667C14.0705 12.6667 14.1414 12.6642 14.2106 12.6588ZM11.0319 11.6579C11.3118 11.4186 11.7331 11.4522 11.9723 11.7321C12.0631 11.8382 12.1621 11.9372 12.2682 12.028C12.5481 12.2672 12.5807 12.6886 12.3415 12.9684C12.1022 13.2478 11.6817 13.2806 11.402 13.0417C11.243 12.9057 11.0946 12.7573 10.9586 12.5983C10.7194 12.3184 10.752 11.8971 11.0319 11.6579ZM16.028 11.7321C16.2672 11.4522 16.6886 11.4186 16.9684 11.6579C17.2481 11.8971 17.2809 12.3185 17.0417 12.5983C16.9057 12.7574 16.7574 12.9057 16.5983 13.0417C16.3185 13.2809 15.8971 13.2481 15.6579 12.9684C15.4186 12.6886 15.4522 12.2672 15.7321 12.028C15.8382 11.9372 15.9372 11.8382 16.028 11.7321ZM9.99966 9.99966C9.99967 9.89442 10.0043 9.78962 10.0124 9.68619C10.0411 9.31937 10.3613 9.0455 10.7282 9.07388C11.0952 9.1024 11.3699 9.42268 11.3415 9.7897C11.3361 9.85882 11.3337 9.92892 11.3336 9.99966C11.3336 10.0705 11.3361 10.1414 11.3415 10.2106C11.3697 10.5775 11.0951 10.8979 10.7282 10.9264C10.3612 10.9548 10.0409 10.6801 10.0124 10.3131C10.0043 10.2097 9.99966 10.1049 9.99966 9.99966ZM16.6667 9.99966C16.6666 9.92892 16.6642 9.85882 16.6588 9.7897C16.6304 9.42281 16.9043 9.10262 17.2711 9.07388C17.6381 9.04537 17.9592 9.31929 17.9879 9.68619C17.996 9.78962 17.9997 9.89442 17.9997 9.99966C17.9997 10.1049 17.996 10.2097 17.9879 10.3131C17.9594 10.6802 17.6382 10.9549 17.2711 10.9264C16.9044 10.8977 16.6306 10.5774 16.6588 10.2106C16.6642 10.1414 16.6667 10.0705 16.6667 9.99966ZM11.402 6.95865C11.6818 6.71948 12.1022 6.7523 12.3415 7.03189C12.5807 7.31175 12.5481 7.73307 12.2682 7.97232C12.1621 8.0631 12.0631 8.16205 11.9723 8.26822C11.7331 8.54808 11.3118 8.58071 11.0319 8.34146C10.7523 8.10217 10.7195 7.68177 10.9586 7.40201C11.0947 7.24292 11.2429 7.09466 11.402 6.95865ZM15.6579 7.03189C15.8971 6.75203 16.3184 6.7194 16.5983 6.95865C16.7573 7.09462 16.9057 7.24297 17.0417 7.40201C17.2806 7.68171 17.2478 8.10218 16.9684 8.34146C16.6886 8.58071 16.2672 8.54808 16.028 8.26822C15.9372 8.16205 15.8382 8.0631 15.7321 7.97232C15.4522 7.73308 15.4186 7.31175 15.6579 7.03189ZM14.3131 6.01236C14.6801 6.04087 14.9548 6.3612 14.9264 6.72818C14.8979 7.09511 14.5775 7.36972 14.2106 7.34146C14.1414 7.33608 14.0705 7.33365 13.9997 7.33365C13.9289 7.33366 13.8588 7.33609 13.7897 7.34146C13.4227 7.3699 13.1024 7.09522 13.0739 6.72818C13.0455 6.36132 13.3194 6.04107 13.6862 6.01236C13.7896 6.00432 13.8944 5.99967 13.9997 5.99966C14.1049 5.99966 14.2097 6.00433 14.3131 6.01236Z" fill="#0E673F"/>
<ellipse cx="14" cy="9.99999" rx="0.668433" ry="1.33333" fill="#0E673F"/>
</g>
</g>
<defs>
<linearGradient id="paint0_linear_5138_675" x1="9.33334" y1="5.33334" x2="9.33334" y2="14.6667" gradientUnits="userSpaceOnUse">
<stop stop-color="#E02C42"/>
<stop offset="1" stop-color="#D22036"/>
</linearGradient>
<clipPath id="clip0_5138_675">
<rect width="28" height="20" fill="white"/>
</clipPath>
</defs>
</svg>

<svg xmlns="http://www.w3.org/2000/svg" width="28" height="20" fill="none" viewBox="0 0 28 20"><g clip-path="url(#a)"><rect width="28" height="20" fill="#fff" rx="2"/><mask id="b" width="28" height="20" x="0" y="0" maskUnits="userSpaceOnUse" style="mask-type:luminance"><rect width="28" height="20" fill="#fff" rx="2"/></mask><g mask="url(#b)"><path fill="#108753" fill-rule="evenodd" d="M0 8h28V0H0zm0 12h28v-8H0z" clip-rule="evenodd"/><path fill="#fff" fill-rule="evenodd" d="M16 20h-4v-8H0V8h12V0h4v8h12v4H16z" clip-rule="evenodd"/><path fill="#262626" fill-rule="evenodd" d="M14.6667 20h-1.3334v-9.3333H0V9.3333h13.3333V0h1.3334v9.3333H28v1.3334H14.6667z" clip-rule="evenodd"/><path fill="#fcd449" fill-rule="evenodd" d="M13.3333 20H12V9.3333H0V8h12V0h1.3333v8H28v1.3333H13.3333z" clip-rule="evenodd"/><circle cx="14" cy="10" r="5" fill="url(#c)"/><path fill="#0e673f" d="M14.2106 12.6588a.6664.6664 0 0 1 .7158.6123.6673.6673 0 0 1-.6133.7168 4 4 0 0 1-.3134.0118 4 4 0 0 1-.3135-.0118c-.3669-.0287-.6408-.3498-.6123-.7168a.666.666 0 0 1 .7158-.6123q.1037.008.21.0079c.0708 0 .1417-.0025.2109-.0079m-3.1787-1.0009c.2799-.2393.7012-.2057.9404.0742.0908.1061.1898.2051.2959.2959a.667.667 0 0 1 .0733.9404.667.667 0 0 1-.9395.0733 4.04 4.04 0 0 1-.4434-.4434.667.667 0 0 1 .0733-.9404m4.9961.0742c.2392-.2799.6606-.3135.9404-.0742a.6674.6674 0 0 1 .0733.9404 4 4 0 0 1-.4434.4434.6674.6674 0 0 1-.9404-.0733c-.2393-.2798-.2057-.7012.0742-.9404a2.7 2.7 0 0 0 .2959-.2959M9.9997 9.9997c0-.1053.0046-.21.0127-.3135a.6666.6666 0 0 1 1.3291.1035 2.8 2.8 0 0 0-.0079.21c0 .0708.0025.1417.0079.2109a.6666.6666 0 0 1-1.3291.1025 4 4 0 0 1-.0127-.3134m6.667 0a2.8 2.8 0 0 0-.0079-.21.666.666 0 0 1 .6123-.7158c.367-.0285.6881.2454.7168.6123a4 4 0 0 1 .0118.3135c0 .1052-.0037.21-.0118.3134a.6673.6673 0 0 1-.7168.6133.6664.6664 0 0 1-.6123-.7158 2.7 2.7 0 0 0 .0079-.211m-5.2647-3.041a.6664.6664 0 0 1 .9395.0732.667.667 0 0 1-.0733.9404 2.7 2.7 0 0 0-.2959.296.667.667 0 0 1-.9404.0732.6664.6664 0 0 1-.0733-.9395 4 4 0 0 1 .4434-.4434m4.2559.0732a.667.667 0 0 1 .9404-.0733c.159.136.3074.2844.4434.4434a.667.667 0 0 1-.0733.9395.667.667 0 0 1-.9404-.0733 2.7 2.7 0 0 0-.2959-.2959c-.2799-.2392-.3135-.6605-.0742-.9404m-1.3448-1.0195a.6666.6666 0 0 1-.1025 1.329 2.7 2.7 0 0 0-.2109-.0078q-.1063-.0001-.21.0079a.6665.6665 0 0 1-.7158-.6133.666.666 0 0 1 .6123-.7158 4 4 0 0 1 .3135-.0127c.1052 0 .21.0046.3134.0127"/><circle cx="14" cy="10" r="1" fill="#0e673f"/></g></g><defs><linearGradient id="c" x1="9" x2="9" y1="5" y2="15" gradientUnits="userSpaceOnUse"><stop stop-color="#e02c42"/><stop offset="1" stop-color="#d22036"/></linearGradient><clipPath id="a"><path fill="#fff" d="M0 0h28v20H0z"/></clipPath></defs></svg>
